Adwaita++-Light/panel/24/pcloud-sync.svg

<svg height="24" width="24" xmlns="http://www.w3.org/2000/svg">
  <g fill="#444">
    <path d="m12.5 5.0002371a6.5 6.5 0 0 0 -6.0097656 4.03125 5 5 0 0 0 -4.4902344 4.9687499 5 5 0 0 0 5 5h6.423828a5 5 0 0 1 -.423828-2 5 5 0 0 1 .113281-1.046875 4.5 4.5 0 0 1 -.613281.046875 4.5 4.5 0 0 1 -4.5-4.5 4.5 4.5 0 0 1 4.5-4.4999999 4.5 4.5 0 0 1 4.5 4.4999999 4.5 4.5 0 0 1 -.048828.617188 5 5 0 0 1 1.048828-.117188 5 5 0 0 1 2.490234.669922 3 3 0 0 0 .509766-1.669922 3 3 0 0 0 -3-2.9999999 3 3 0 0 0 -.02344 0 6.5 6.5 0 0 0 -5.476562-3zm0 3a3.5 3.5 0 0 0 -3.5 3.4999999 3.5 3.5 0 0 0 3.5 3.5 3.5 3.5 0 0 0 .990234-.144531 5 5 0 0 1 2.365235-2.365235 3.5 3.5 0 0 0 .144531-.990234 3.5 3.5 0 0 0 -3.5-3.4999999zm-1.5 1h1 1.5a1.5 1.5 0 0 1 1.5 1.4999999 1.5 1.5 0 0 1 -1.5 1.5h-1.5v2h-1v-2zm1 .9999999v1h1.5a.5.5 0 0 0 .5-.5.5.5 0 0 0 -.5-.5z"/>
    <path d="m21.464742 14.999335c-1.1045-1.9131-3.551-2.5687-5.4641-1.4641-1.9132 1.1046-2.5686 3.5509-1.4641 5.4641 1.1045 1.9131 3.551 2.5687 5.4641 1.4641 1.9132-1.1046 2.5686-3.5509 1.4641-5.4641zm-.86601.5a3 3 0 0 1 -1.0981 4.0981l-.49998-.8661a2 2 0 0 0 .73208-2.7321l.86598-.4999zm-4.0981-1.0981.49998.8661a2 2 0 0 0 -.73208 2.7321l-.86598.4999a3 3 0 0 1 1.0981-4.0981z"/>
  </g>
</svg>

<svg xmlns="http://www.w3.org/2000/svg" width="24" height="24" version="1.1">
 <defs>
  <style id="current-color-scheme" type="text/css">
   .ColorScheme-Text { color:#444444; } .ColorScheme-Highlight { color:#4285f4; }
  </style>
 </defs>
 <path style="fill:currentColor" class="ColorScheme-Text" d="M 12.5,5.0002371 A 6.5,6.5 0 0 0 6.4902344,9.0314871 5,5 0 0 0 2,14.000237 a 5,5 0 0 0 5,5 h 6.423828 A 5,5 0 0 1 13,17.000237 5,5 0 0 1 13.113281,15.953362 4.5,4.5 0 0 1 12.5,16.000237 4.5,4.5 0 0 1 8,11.500237 4.5,4.5 0 0 1 12.5,7.0002371 4.5,4.5 0 0 1 17,11.500237 4.5,4.5 0 0 1 16.951172,12.117425 5,5 0 0 1 18,12.000237 5,5 0 0 1 20.490234,12.670159 3,3 0 0 0 21,11.000237 3,3 0 0 0 18,8.0002371 a 3,3 0 0 0 -0.02344,0 6.5,6.5 0 0 0 -5.476562,-3 z m 0,3 A 3.5,3.5 0 0 0 9,11.500237 a 3.5,3.5 0 0 0 3.5,3.5 3.5,3.5 0 0 0 0.990234,-0.144531 5,5 0 0 1 2.365235,-2.365235 A 3.5,3.5 0 0 0 16,11.500237 3.5,3.5 0 0 0 12.5,8.0002371 Z m -1.5,1 h 1 1.5 a 1.5,1.5 0 0 1 1.5,1.4999999 1.5,1.5 0 0 1 -1.5,1.5 H 12 v 2 h -1 v -2 z m 1,0.9999999 v 1 h 1.5 a 0.5,0.5 0 0 0 0.5,-0.5 0.5,0.5 0 0 0 -0.5,-0.5 z"/>
 <path style="fill:currentColor" class="ColorScheme-Text" d="m 21.464742,14.999335 c -1.1045,-1.9131 -3.551,-2.5687 -5.4641,-1.4641 -1.9132,1.1046 -2.5686,3.5509 -1.4641,5.4641 1.1045,1.9131 3.551,2.5687 5.4641,1.4641 1.9132,-1.1046 2.5686,-3.5509 1.4641,-5.4641 z m -0.86601,0.5 a 3,3 0 0 1 -1.0981,4.0981 l -0.49998,-0.8661 a 2,2 0 0 0 0.73208,-2.7321 l 0.86598,-0.4999 z m -4.0981,-1.0981 0.49998,0.8661 a 2,2 0 0 0 -0.73208,2.7321 l -0.86598,0.4999 a 3,3 0 0 1 1.0981,-4.0981 z"/>
</svg>
